app/_includes/svgs/technology-logos/logo_wordpress.min.svg

<svg xmlns="http://www.w3.org/2000/svg" viewBox="0 0 150 100" enable-background="new 0 0 150 100"><g fill="#00749A"><path d="M6.5 45.5c0 15.5 9 28.8 22 35.1l-18.6-51c-2.2 4.9-3.4 10.3-3.4 15.9z"/><path d="M71.9 43.5c0-4.8-1.7-8.2-3.2-10.8-2-3.2-3.8-5.9-3.8-9.2 0-3.6 2.7-6.9 6.6-6.9h.5c-7.1-6.2-16.3-10.1-26.5-10.1-13.6 0-25.6 7-32.6 17.6h2.5c4.1 0 10.4-.5 10.4-.5 2.1-.1 2.4 3 .3 3.2 0 0-2.1.2-4.5.4l14.2 42.3 8.5-25.6-6.1-16.7c-2.1-.1-4.1-.4-4.1-.4-2.1-.1-1.9-3.3.2-3.2 0 0 6.4.5 10.3.5 4.1 0 10.4-.5 10.4-.5 2.1-.1 2.4 3 .3 3.2 0 0-2.1.2-4.5.4l14.1 42 3.9-13c1.8-5.4 3.1-9.3 3.1-12.7z"/><path d="M46.2 48.9l-11.7 34.1c3.5 1 7.2 1.6 11 1.6 4.5 0 8.9-.8 13-2.2l-.3-.5-12-33z"/><path d="M79.8 26.8c.2 1.2.3 2.6.3 4 0 4-.7 8.4-3 14l-12 34.5c11.6-6.8 19.4-19.3 19.4-33.7.1-6.9-1.7-13.3-4.7-18.8z"/><path d="M45.5 0c-25.1 0-45.5 20.4-45.5 45.5s20.4 45.5 45.5 45.5 45.5-20.4 45.5-45.5-20.4-45.5-45.5-45.5zm0 88.9c-23.9 0-43.4-19.5-43.4-43.4s19.5-43.4 43.4-43.4 43.4 19.5 43.4 43.4c0 24-19.4 43.4-43.4 43.4z"/></g></svg>

<svg xmlns="http://www.w3.org/2000/svg" viewBox="0 0 150 100" enable-background="new 0 0 150 100"><g fill="#00749A"><path d="M6.5,45.5c0,15.5,9,28.8,22,35.1l-18.6-51C7.7,34.5,6.5,39.9,6.5,45.5z"/><path d="M71.9,43.5c0-4.8-1.7-8.2-3.2-10.8c-2-3.2-3.8-5.9-3.8-9.2c0-3.6,2.7-6.9,6.6-6.9c0.2,0,0.3,0,0.5,0 C64.9,10.4,55.7,6.5,45.5,6.5c-13.6,0-25.6,7-32.6,17.6c0.9,0,1.8,0,2.5,0c4.1,0,10.4-0.5,10.4-0.5c2.1-0.1,2.4,3,0.3,3.2 c0,0-2.1,0.2-4.5,0.4l14.2,42.3l8.5-25.6l-6.1-16.7c-2.1-0.1-4.1-0.4-4.1-0.4c-2.1-0.1-1.9-3.3,0.2-3.2c0,0,6.4,0.5,10.3,0.5 c4.1,0,10.4-0.5,10.4-0.5c2.1-0.1,2.4,3,0.3,3.2c0,0-2.1,0.2-4.5,0.4l14.1,42l3.9-13C70.6,50.8,71.9,46.9,71.9,43.5z"/><path d="M46.2,48.9L34.5,83c3.5,1,7.2,1.6,11,1.6c4.5,0,8.9-0.8,13-2.2c-0.1-0.2-0.2-0.3-0.3-0.5L46.2,48.9z"/><path d="M79.8,26.8c0.2,1.2,0.3,2.6,0.3,4c0,4-0.7,8.4-3,14L65.1,79.3c11.6-6.8,19.4-19.3,19.4-33.7 C84.6,38.7,82.8,32.3,79.8,26.8z"/><path d="M45.5,0C20.4,0,0,20.4,0,45.5C0,70.6,20.4,91,45.5,91C70.6,91,91,70.6,91,45.5C91,20.4,70.6,0,45.5,0z M45.5,88.9c-23.9,0-43.4-19.5-43.4-43.4c0-23.9,19.5-43.4,43.4-43.4c23.9,0,43.4,19.5,43.4,43.4C88.9,69.5,69.5,88.9,45.5,88.9z"/></g></svg>
